packages/bpk-svgs/src/icons/hotel/hotel--checkout.svg

<svg xmlns="http://www.w3.org/2000/svg" viewBox="0 0 24 24"><path d="M19 4v2h-4V4H9v2H5V4a2 2 0 0 0-2 2v13a2 2 0 0 0 2 2h14a2 2 0 0 0 2-2V6a2 2 0 0 0-2-2zm0 14.5a.5.5 0 0 1-.5.5h-13a.5.5 0 0 1-.5-.5V10h14zM8 5H6V3h2zm10 0h-2V3h2zm-1 12h-4v-4h4z"/></svg>

<svg id="icon" xmlns="http://www.w3.org/2000/svg" viewBox="0 0 24 24"><title>hotel--checkout</title><path d="M19,4h0V6H15V4H9V6H5V4A2,2,0,0,0,3,6V19a2,2,0,0,0,2,2H19a2,2,0,0,0,2-2V6A2,2,0,0,0,19,4Zm0,14.5a.5.5,0,0,1-.5.5H5.5a.5.5,0,0,1-.5-.5V10H19ZM8,5H6V3H8ZM18,5H16V3h2ZM17,17H13V13h4Z"/></svg>
